Obsidian-SemiLight/actions/16s/view-grid.svg

<svg viewBox="0 0 16 16" xmlns="http://www.w3.org/2000/svg"><path d="m2 2v2h2v-2zm5 0v2h2v-2zm5 0v2h2v-2zm-10 5v2h2v-2zm5 0v2h2v-2zm5 0v2h2v-2zm-10 5v2h2v-2zm5 0v2h2v-2zm5 0v2h2v-2z" fill="#4d4d4d"/></svg>

<svg xmlns="http://www.w3.org/2000/svg" viewBox="0 0 16 16">
  <defs id="defs3051">
    <style type="text/css" id="current-color-scheme">
      .ColorScheme-Text {
        color:#4d4d4d;
      }
      </style>
  </defs>
 <path style="fill:currentColor;fill-opacity:1;stroke:none" 
       d="M 2 2 L 2 4 L 4 4 L 4 2 L 2 2 z M 7 2 L 7 4 L 9 4 L 9 2 L 7 2 z M 12 2 L 12 4 L 14 4 L 14 2 L 12 2 z M 2 7 L 2 9 L 4 9 L 4 7 L 2 7 z M 7 7 L 7 9 L 9 9 L 9 7 L 7 7 z M 12 7 L 12 9 L 14 9 L 14 7 L 12 7 z M 2 12 L 2 14 L 4 14 L 4 12 L 2 12 z M 7 12 L 7 14 L 9 14 L 9 12 L 7 12 z M 12 12 L 12 14 L 14 14 L 14 12 L 12 12 z "
     class="ColorScheme-Text"
     />
</svg>
